packages/ffe-icons/icons/open/400/sm/more_up.svg

<svg xmlns="http://www.w3.org/2000/svg" height="20" viewBox="0 -960 960 960" width="20"><path d="M672-672H372q-15.3 0-25.65-10.289-10.35-10.29-10.35-25.5Q336-723 346.35-733.5 356.7-744 372-744h336q15.3 0 25.65 10.35Q744-723.3 744-708v336q0 15.3-10.289 25.65-10.29 10.35-25.5 10.35Q693-336 682.5-346.35 672-356.7 672-372v-300ZM480-480H180q-15.3 0-25.65-10.289-10.35-10.29-10.35-25.5Q144-531 154.35-541.5 164.7-552 180-552h336q15.3 0 25.65 10.35Q552-531.3 552-516v336q0 15.3-10.289 25.65-10.29 10.35-25.5 10.35Q501-144 490.5-154.35 480-164.7 480-180v-300Z"/></svg>

<svg xmlns="http://www.w3.org/2000/svg" height="20" viewBox="0 -960 960 960" width="20"><path d="M672-672H372q-15.3 0-25.65-10.29Q336-692.58 336-707.79t10.35-25.71Q356.7-744 372-744h336q15.3 0 25.65 10.35Q744-723.3 744-708v336q0 15.3-10.29 25.65Q723.42-336 708.21-336t-25.71-10.35Q672-356.7 672-372v-300ZM480-480H180q-15.3 0-25.65-10.29Q144-500.58 144-515.79t10.35-25.71Q164.7-552 180-552h336q15.3 0 25.65 10.35Q552-531.3 552-516v336q0 15.3-10.29 25.65Q531.42-144 516.21-144t-25.71-10.35Q480-164.7 480-180v-300Z"/></svg>
